src/images/std-icons/std-more.svg

<svg xmlns="http://www.w3.org/2000/svg" width="512" height="512" viewBox="0 0 512 512">
  <title>more</title>
  <path fill="#000" fill-rule="nonzero" d="M256.001493,64.0066133 C149.962821,64.0066133 64.0014933,149.967941 64.0014933,256.006613 C64.0014933,362.045285 149.962821,448.006613 256.001493,448.006613 C362.040165,448.006613 448.001493,362.045285 448.001493,256.006613 C448.001493,149.967941 362.040165,64.0066133 256.001493,64.0066133 Z M256.001493,405.339947 C173.526971,405.339947 106.66816,338.481136 106.66816,256.006613 C106.66816,173.532091 173.526971,106.67328 256.001493,106.67328 C338.476016,106.67328 405.334827,173.532091 405.334827,256.006613 C405.24148,338.442439 338.437319,405.2466 256.001493,405.339947 Z"/>
  <path fill="#000" fill-rule="nonzero" d="M320.001493,234.67328 L277.334827,234.67328 L277.334827,192.006613 C277.334827,180.224539 267.783568,170.67328 256.001493,170.67328 C244.219419,170.67328 234.66816,180.224539 234.66816,192.006613 L234.66816,234.67328 L192.001493,234.67328 C180.219419,234.67328 170.66816,244.224539 170.66816,256.006613 C170.66816,267.788688 180.219419,277.339947 192.001493,277.339947 L234.66816,277.339947 L234.66816,320.006613 C234.66816,331.788688 244.219419,341.339947 256.001493,341.339947 C267.783568,341.339947 277.334827,331.788688 277.334827,320.006613 L277.334827,277.339947 L320.001493,277.339947 C331.783568,277.339947 341.334827,267.788688 341.334827,256.006613 C341.334827,244.224539 331.783568,234.67328 320.001493,234.67328 Z"/>
</svg>

<svg xmlns="http://www.w3.org/2000/svg" viewBox="0 0 512 512">
  <title>
    more
  </title>
  <path d="M256 64C149.96 64 64 149.98 64 256c0 106.05 85.96 192 192 192s192-85.95 192-192c0-106.03-85.96-192-192-192zm0 341.34c-82.47 0-149.33-66.86-149.33-149.33 0-82.48 66.86-149.34 149.33-149.34 82.48 0 149.33 66.86 149.33 149.34-.09 82.43-66.9 149.24-149.33 149.33z"/>
  <path d="M320 234.67h-42.67v-42.66a21.33 21.33 0 0 0-42.66 0v42.66H192a21.33 21.33 0 0 0 0 42.67h42.67v42.67a21.33 21.33 0 1 0 42.66 0v-42.67H320a21.33 21.33 0 0 0 0-42.67z"/>
</svg>
